build/svg/cmd/32/sbanativesql.svg

<?xml version="1.0" encoding="UTF-8" standalone="no"?>
<svg
   xmlns:dc="http://purl.org/dc/elements/1.1/"
   xmlns:cc="http://creativecommons.org/ns#"
   xmlns:rdf="http://www.w3.org/1999/02/22-rdf-syntax-ns#"
   xmlns:svg="http://www.w3.org/2000/svg"
   xmlns="http://www.w3.org/2000/svg"
   xmlns:sodipodi="http://sodipodi.sourceforge.net/DTD/sodipodi-0.dtd"
   xmlns:inkscape="http://www.inkscape.org/namespaces/inkscape"
   viewBox="0 0 32 32"
   version="1.1"
   id="svg6"
   sodipodi:docname="sbanativesql.svg"
   inkscape:export-filename="/home/jupiter007/Libreoffice yaru theme fullcolor/build/cmd/32/sbanativesql.png"
   inkscape:export-xdpi="96"
   inkscape:export-ydpi="96"
   inkscape:version="0.92.5 (2060ec1f9f, 2020-04-08)">
  <metadata
     id="metadata12">
    <rdf:RDF>
      <cc:Work
         rdf:about="">
        <dc:format>image/svg+xml</dc:format>
        <dc:type
           rdf:resource="http://purl.org/dc/dcmitype/StillImage" />
      </cc:Work>
    </rdf:RDF>
  </metadata>
  <defs
     id="defs10" />
  <sodipodi:namedview
     pagecolor="#ffffff"
     bordercolor="#666666"
     borderopacity="1"
     objecttolerance="10"
     gridtolerance="10"
     guidetolerance="10"
     inkscape:pageopacity="0"
     inkscape:pageshadow="2"
     inkscape:window-width="1920"
     inkscape:window-height="1011"
     id="namedview8"
     showgrid="true"
     inkscape:zoom="14.75"
     inkscape:cx="13.49278"
     inkscape:cy="16.182412"
     inkscape:window-x="0"
     inkscape:window-y="32"
     inkscape:window-maximized="1"
     inkscape:current-layer="svg6">
    <inkscape:grid
       type="xygrid"
       id="grid832" />
  </sodipodi:namedview>
  <path
     style="fill:#f2cbf8;fill-opacity:1;stroke-width:0.95833331"
     id="path817"
     d="m 16,4.5000002 c -6.3512754,0 -11.5,1.2871814 -11.5,2.875 V 13.125 v 5.75 5.75 c 0,1.587818 5.1487246,2.875 11.5,2.875 6.351275,0 11.5,-1.287182 11.5,-2.875 V 7.3750002 c 0,-1.5878186 -5.148725,-2.875 -11.5,-2.875 z"
     inkscape:connector-curvature="0"
     sodipodi:nodetypes="ssccsssss" />
  <path
     inkscape:connector-curvature="0"
     d="m 16,4.0000002 a 12,3 0 0 0 -12,3 V 13 v 6 6 a 12,3 0 0 0 12,3 12,3 0 0 0 12,-3 V 7.0000002 a 12,3 0 0 0 -12,-3 z m 0,1 a 11,2 0 0 1 11,2 11,2 0 0 1 -11,2 11,2 0 0 1 -11,-2 11,2 0 0 1 11,-2 z M 27,8.1914064 V 13 A 11,2 0 0 1 16,15 11,2 0 0 1 5,13 V 8.1953127 A 12,3 0 0 0 16,10 12,3 0 0 0 27,8.1914064 Z m 0,5.9999996 V 19 A 11,2 0 0 1 16,21 11,2 0 0 1 5,19 V 14.195312 A 12,3 0 0 0 16,16 12,3 0 0 0 27,14.191406 Z m 0,6 V 25 A 11,2 0 0 1 16,27 11,2 0 0 1 5,25 V 20.195312 A 12,3 0 0 0 16,22 12,3 0 0 0 27,20.191406 Z"
     id="path2-3"
     style="fill:#8e03a3;fill-opacity:1" />
  <path
     inkscape:connector-curvature="0"
     id="path832"
     d="M 5.0501768,15.343146 3.6359628,16.757359 7.878604,21 3.6359628,25.242641 5.0501768,26.656854 9.292818,22.414214 10.707031,21 9.292818,19.585786 Z"
     style="opacity:0.6;fill:#000000;fill-opacity:1;stroke:#000000;stroke-width:2;stroke-linejoin:round;stroke-miterlimit:4;stroke-dasharray:none" />
  <rect
     y="27"
     x="11"
     height="2"
     width="7"
     id="rect834"
     style="opacity:0.6;fill:#000000;fill-opacity:1;stroke:#000000;stroke-width:2;stroke-linejoin:round;stroke-miterlimit:4;stroke-dasharray:none" />
  <path
     style="opacity:1;fill:#ffffff;fill-opacity:1;stroke:none;stroke-width:2;stroke-linejoin:round;stroke-miterlimit:4;stroke-dasharray:none"
     d="M 5.0501768,15.343146 3.6359628,16.757359 7.878604,21 3.6359628,25.242641 5.0501768,26.656854 9.292818,22.414214 10.707031,21 9.292818,19.585786 Z"
     id="rect825"
     inkscape:connector-curvature="0" />
  <rect
     style="opacity:1;fill:#ffffff;fill-opacity:1;stroke:none;stroke-width:2;stroke-linejoin:round;stroke-miterlimit:4;stroke-dasharray:none"
     id="rect830"
     width="7"
     height="2"
     x="11"
     y="27" />
</svg>

<svg xmlns="http://www.w3.org/2000/svg" viewBox="0 0 32 32"><path d="M16 4.5C9.649 4.5 4.5 5.787 4.5 7.375v17.25C4.5 26.213 9.649 27.5 16 27.5s11.5-1.287 11.5-2.875V7.375C27.5 5.787 22.351 4.5 16 4.5z" fill="#f2cbf8"/><path d="M16 4A12 3 0 004 7v18a12 3 0 0012 3 12 3 0 0012-3V7a12 3 0 00-12-3zm0 1a11 2 0 0111 2 11 2 0 01-11 2A11 2 0 015 7a11 2 0 0111-2zm11 3.191V13a11 2 0 01-11 2 11 2 0 01-11-2V8.195A12 3 0 0016 10a12 3 0 0011-1.809zm0 6V19a11 2 0 01-11 2 11 2 0 01-11-2v-4.805A12 3 0 0016 16a12 3 0 0011-1.809zm0 6V25a11 2 0 01-11 2 11 2 0 01-11-2v-4.805A12 3 0 0016 22a12 3 0 0011-1.809z" fill="#8e03a3"/><path d="M5.05 15.343l-1.414 1.414L7.879 21l-4.243 4.243 1.414 1.414 4.243-4.243L10.707 21l-1.414-1.414zM11 27h7v2h-7z" opacity=".6" stroke="#000" stroke-width="2" stroke-linejoin="round"/><path d="M5.05 15.343l-1.414 1.414L7.879 21l-4.243 4.243 1.414 1.414 4.243-4.243L10.707 21l-1.414-1.414zM11 27h7v2h-7z" fill="#fff"/></svg>
